X:1
T:Title
L:1/8
Q:1/4=100
M:6/8
K:C
V:1 treble nm="Church Organ, Staff"
V:1
 A c2 A c2 | A c2 A c2 | d c2 AAG | F G2- G/ z/ z z | A c2 A c2 | A c2 A f2 | d c2 AGA | %7
w: By~Rev.~J.~H.~Hopkins * * *|||||||
 G F2- F F2 | A d2 A d2 | A d2 A d2 | A d2 A_BA | G F2- F E2 | A G2 A G2 | A G2 A G2 | d e2 cdc | %15
w: ||||||||
 B c2- c/ z/ z z |] %16
w: |

